package/converter/svg/regular/speaker.svg

<svg xmlns="http://www.w3.org/2000/svg" viewBox="0 0 384 512"><!-- Font Awesome Pro 6.0.0-alpha2 by @fontawesome - https://fontawesome.com License - https://fontawesome.com/license (Commercial License) --><path d="M320 0H64C28.654 0 0 28.652 0 64V448C0 483.346 28.654 512 64 512H320C355.346 512 384 483.346 384 448V64C384 28.652 355.346 0 320 0ZM336 448C336 456.822 328.822 464 320 464H64C55.178 464 48 456.822 48 448V64C48 55.178 55.178 48 64 48H320C328.822 48 336 55.178 336 64V448ZM192 160C214.092 160 232 142.092 232 120S214.092 80 192 80S152 97.908 152 120S169.908 160 192 160ZM192 224C134.562 224 88 270.562 88 328S134.562 432 192 432S296 385.438 296 328S249.438 224 192 224ZM192 384C161.121 384 136 358.877 136 328C136 297.121 161.121 272 192 272S248 297.121 248 328C248 358.877 222.879 384 192 384Z"/></svg>

<svg xmlns="http://www.w3.org/2000/svg" viewBox="0 0 384 512"><!--! Font Awesome Pro 6.6.0 by @fontawesome - https://fontawesome.com License - https://fontawesome.com/license (Commercial License) Copyright 2024 Fonticons, Inc. --><path d="M320 48c8.8 0 16 7.2 16 16l0 384c0 8.8-7.2 16-16 16L64 464c-8.8 0-16-7.2-16-16L48 64c0-8.8 7.2-16 16-16l256 0zM64 0C28.7 0 0 28.7 0 64L0 448c0 35.3 28.7 64 64 64l256 0c35.3 0 64-28.7 64-64l0-384c0-35.3-28.7-64-64-64L64 0zM232 120a40 40 0 1 0 -80 0 40 40 0 1 0 80 0zM192 432a104 104 0 1 0 0-208 104 104 0 1 0 0 208zM136 328a56 56 0 1 1 112 0 56 56 0 1 1 -112 0z"/></svg>
